32x32/places/folder-custom-development.svg

<svg xmlns="http://www.w3.org/2000/svg" width="32" height="32" version="1">
 <rect style="opacity:0.2" width="28" height="18" x="2" y="11" rx="1.4" ry="1.4"/>
 <path style="fill:#3c3f4c" d="M 2,22.6 C 2,23.376 2.6244,24 3.4,24 H 28.6 C 29.376,24 30,23.376 30,22.6 V 7.4 C 30,6.6244 29.376,6 28.6,6 H 16 C 13.9,6 13.2,3 11.1,3 H 3.4 C 2.6244,3 2,3.6244 2,4.4"/>
 <rect style="opacity:0.2" width="28" height="18" x="2" y="9" rx="1.4" ry="1.4"/>
 <rect style="fill:#f4f4f7" width="24" height="11" x="4" y="8" rx="1.4" ry="1.4"/>
 <rect style="fill:#555e70" width="28" height="18" x="2" y="10" rx="1.4" ry="1.4"/>
 <path style="opacity:0.1;fill:#f4f4f7" d="M 3.4004,3 C 2.6248,3 2,3.6248 2,4.4004 V 5.4004 C 2,4.6248 2.6248,4 3.4004,4 H 11.1 C 13.2,4 13.9,7 16,7 H 28.6 C 29.375,7 30,7.6248 30,8.4004 V 7.4004 C 30,6.6248 29.375,6 28.6,6 H 16 C 13.9,6 13.2,3 11.1,3 Z"/>
 <path style="fill:#f4f4f7" d="M 14.738,14 V 14.002 L 14.627,15.318 A 3.9641,3.9283 0 0 0 13.469,15.982 L 12.262,15.418 11,17.584 12.098,18.34 A 3.9641,3.9283 0 0 0 12.035,19.002 3.9641,3.9283 0 0 0 12.094,19.668 L 11,20.418 12.262,22.584 13.467,22.02 A 3.9641,3.9283 0 0 0 14.629,22.682 L 14.738,24 H 17.262 L 17.373,22.684 A 3.9641,3.9283 0 0 0 18.531,22.02 L 19.738,22.582 21,20.418 19.904,19.664 A 3.9641,3.9283 0 0 0 19.963,19 3.9641,3.9283 0 0 0 19.904,18.336 L 20.998,17.582 19.738,15.418 18.531,15.98 A 3.9641,3.9283 0 0 0 17.371,15.32 L 17.262,14 Z M 16,17 A 2,2 0 0 1 18,19 2,2 0 0 1 16,21 2,2 0 0 1 14,19 2,2 0 0 1 16,17 Z"/>
</svg>

<svg xmlns="http://www.w3.org/2000/svg" width="32" height="32" version="1"><rect style="opacity:.2" width="28" height="18" x="2" y="11" rx="1.4" ry="1.4"/><path style="fill:#3c3f4c" d="M2 22.6c0 .776.624 1.4 1.4 1.4h25.2c.776 0 1.4-.624 1.4-1.4V7.4c0-.776-.624-1.4-1.4-1.4H16c-2.1 0-2.8-3-4.9-3H3.4C2.624 3 2 3.624 2 4.4"/><rect style="opacity:.2" width="28" height="18" x="2" y="9" rx="1.4" ry="1.4"/><rect style="fill:#f4f4f7" width="24" height="11" x="4" y="8" rx="1.4" ry="1.4"/><rect style="fill:#555e70" width="28" height="18" x="2" y="10" rx="1.4" ry="1.4"/><path style="opacity:.1;fill:#f4f4f7" d="M3.4 3C2.625 3 2 3.625 2 4.4v1C2 4.625 2.625 4 3.4 4h7.7c2.1 0 2.8 3 4.9 3h12.6c.775 0 1.4.625 1.4 1.4v-1c0-.775-.625-1.4-1.4-1.4H16c-2.1 0-2.8-3-4.9-3z"/><path style="fill:#f4f4f7" d="M14.738 14v.002l-.111 1.316a3.964 3.928 0 0 0-1.158.664l-1.207-.564L11 17.584l1.098.756a3.964 3.928 0 0 0-.063.662 3.964 3.928 0 0 0 .059.666l-1.094.75 1.262 2.166 1.205-.564a3.964 3.928 0 0 0 1.162.662L14.738 24h2.524l.111-1.316a3.964 3.928 0 0 0 1.158-.664l1.207.562L21 20.418l-1.096-.754a3.964 3.928 0 0 0 .059-.664 3.964 3.928 0 0 0-.059-.664l1.094-.754-1.26-2.164-1.207.562a3.964 3.928 0 0 0-1.16-.66L17.262 14zM16 17a2 2 0 0 1 2 2 2 2 0 0 1-2 2 2 2 0 0 1-2-2 2 2 0 0 1 2-2z"/></svg>
